X: 1969
T:Rose Tree,The. WM026
M:2/4
L:1/8
Q:200
S:Wm.Mittell,1799
R:Scots Measure
O:England
A:Kent
Z:C.G.P
K:D
f/e/|dBAF|A>BAB|d2f/e/d/e/|feef|dBAF|A>BAB|d2f/e/d/e/|fdd:|!
|:d|fefg|a2gf|e2ba|beef|dBAF|A2AB|d2f/e/d/e/|fdd:|]
